**kern	**kern	**dynam
*part1	*part1	*part1
*staff2	*staff1	*
*I"Piano	*	*
*clefF4	*clefG2	*
*k[b-e-a-]	*k[b-e-a-]	*
*M2/4	*M2/4	*
=1	=1	=1
(4E-' 4B-	(4e-' 4g	pp
8E-'L 8B-	8e-'L 8g	.
8E-'J) 8B-	8e-'J) 8g	.
=	=	=
(4E-' 4B-	(4e-' 4g	.
8E-'L 8B-	8e-'L 8g	.
8E-'J) 8B-	8e-'J) 8g	.
=	=	=
4E- 4B-	4e- 4g	.
8E-L 8B-	8e-L 8g	.
8E-J 8B-	8e-J 8g	.
=	=	=
4E- 4B-	4e- 4g	.
8E-L 8A-	8e-L 8a-	.
8E-J 8G	8e-J 8b-	.
=	=	=
4D 4A- 4B-	4f 4b-	.
8DL 8A- 8B-	8fL 8b-	.
8DJ 8A- 8B-	8fJ 8b-	.
=	=	=
4D 4A- 4B-	4f 4b-	.
8DL 8A- 8B-	8fL 8b-	.
8DJ 8A- 8B-	8fJ 8b-	.
=	=	=
*^	*	*
(8A-L	4D	4f 4bn	.
8G)	.	.	.
8G	8DL	8fL 8b	.
8GJ	8DJ	8fJ 8b	.
*v	*v	*	*
=	=	=
*-	*-	*-
!!!system-decoration: {(s1,s2)}
